src/lib/packages/icons/src/assets/line/sort-vertical.svg

<svg width="24" height="24" viewBox="0 0 24 24" fill="none" xmlns="http://www.w3.org/2000/svg">
<path d="M16.5301 13.47C16.8231 13.763 16.8231 14.238 16.5301 14.531L12.5301 18.531C12.3841 18.677 12.192 18.751 12 18.751C11.808 18.751 11.616 18.678 11.47 18.531L7.46999 14.531C7.17699 14.238 7.17699 13.763 7.46999 13.47C7.76299 13.177 8.23803 13.177 8.53103 13.47L12.001 16.94L15.471 13.47C15.763 13.177 16.2371 13.177 16.5301 13.47ZM8.53005 10.5301L12 7.06008L15.47 10.5301C15.616 10.6761 15.808 10.75 16 10.75C16.192 10.75 16.3841 10.6771 16.5301 10.5301C16.8231 10.2371 16.8231 9.76202 16.5301 9.46902L12.5301 5.46902C12.2371 5.17602 11.762 5.17602 11.469 5.46902L7.46902 9.46902C7.17602 9.76202 7.17602 10.2371 7.46902 10.5301C7.76202 10.8231 8.23705 10.8231 8.53005 10.5301Z" fill="currentColor"/>
</svg>

<svg xmlns="http://www.w3.org/2000/svg" width="24" height="24" fill="none"><path fill="currentColor" d="M16.53 13.47a.75.75 0 0 1 0 1.061l-4 4a.748.748 0 0 1-1.06 0l-4-4a.75.75 0 1 1 1.061-1.061l3.47 3.47 3.47-3.47a.748.748 0 0 1 1.06 0Zm-8-2.94L12 7.06l3.47 3.47a.748.748 0 0 0 1.06 0 .75.75 0 0 0 0-1.061l-4-4a.75.75 0 0 0-1.061 0l-4 4A.75.75 0 0 0 8.53 10.53Z"/></svg>
